data/protest-riot.svg

<svg width="71.442" height="16.8" viewBox="0 0 71.442 16.8" xmlns="http://www.w3.org/2000/svg"><path transform="translate(0 13.44) scale(.014 -.014)" d="m185-13q-21 0-47.5 14.5t-46.5 47-20 86.5q0 7 0 13.5t1 13.5q6 55 12.5 132t12 163.5 9.5 168.5q-22 17-39 40t-17 39q0 9 6 12.5t13 3.5q28 0 66 2t75.5 3.5 63.5 1.5q57 0 106.5-19t87-49 58.5-64 21-64q0-61-26.5-112.5t-69-93.5-91.5-75q-25-17-46-24t-38-7-29.5 6-20.5 15q-5-55-10-113.5t-9-125.5q-1-9-7-12t-15-3zm60 469q-3-40-6.5-77.5t-7.5-75.5q90 63 128 125t38 110q0 41-21 66-15 0-29 0.5t-27 0.5q-30 0-55-0.5t-47-1.5q14-16 21.5-42t7.5-66q0-9-0.5-18.5t-1.5-20.5z"/><path transform="translate(7.714 13.44) scale(.014 -.014)" d="m182-20q-29 0-59 16t-51.5 43.5-24.5 62.5q-3 32-5 77t-2 97q0 73 5.5 152t20.5 149q5 21 17 21 25 0 53.5-13t48.5-32.5 20-39.5q0-11-2-30.5t-3-57.5h2q6 32 23.5 68.5t44.5 63 61 26.5q24-28 38-73t15-90q-52-12-91.5-36.5t-79.5-66.5q-13-52-19.5-110.5t-9-110-2.5-84 0-32.5z"/><path transform="translate(13.02 13.44) scale(.014 -.014)" d="m245-15q-33 0-63.5 12.5t-49.5 42.5q-48 23-74 80t-26 133q0 66 18 125.5t49 105.5 71.5 72.5 85.5 26.5q38 0 76-13.5t66-48.5q49-25 75.5-73t26.5-105q0-73-15-138t-46-114.5-79-77.5-115-28zm-20 110q30 0 53 26t39 66.5 24.5 87.5 8.5 89q0 46-10.5 77t-33.5 31q-30 0-53-26t-39-66.5-24.5-87.5-8.5-89q0-46 11-77t33-31z"/><path transform="translate(20.496 13.44) scale(.014 -.014)" d="m205-15q-22 0-52.5 13.5t-45.5 47.5q-26 16-39 43.5t-13 64.5q0 24 1 70t3.5 106 7.5 126q-27 12-48.5 35.5t-21.5 38.5q0 12 4.5 19t17.5 8q28 4 58 7 4 32 8 62t9 59q3 16 9 21.5t17 5.5q30 0 58.5-15t47-34 16.5-31q-5-30-8-56 14 0 26 0 15 0 35.5-8.5t39.5-21.5 32-27.5 13-26.5q0-18-9-23t-28-5q-17 0-52-2.5t-74-5.5q-11-85-19.5-169t-11.5-169q38 11 61 30.5t37.5 37 27.5 22.5q6 3 13 3 18 0 30.5-18t12.5-45q0-30-17.5-59t-44.5-52.5-54-37.5-47-14z"/><path transform="translate(25.732 13.44) scale(.014 -.014)" d="m170-12q-28 0-56.5 17.5t-53 47-39.5 65.5-15 72q0 71 20.5 141t57 127 86.5 91 108 34q26 0 57-15.5t45-45.5q38-18 56-54t14-66q-3-24-21-54.5t-46-62-62-58-69.5-43-68.5-16.5q-12 0-26 8 3-32 18.5-45.5t41.5-13.5q38 0 84 27t98 72q23-11 35-28.5t9-43.5q-4-30-31.5-57.5t-69-50-87-35.5-85.5-13zm149 485q-39-2-71-36t-54-83.5-32-98.5q33 7 62.5 34.5t52 63 34.5 69 8 51.5z"/><path transform="translate(32.368 13.44) scale(.014 -.014)" d="m220-13q-52 0-100 15t-78.5 46.5-30.5 78.5q0 26 10.5 46t29.5 20q16-26 41.5-45t54-28.5 51.5-9.5 38 9.5 15 29.5q0 12-9 23t-35 20l-85 29q-49 17-66.5 42t-17.5 69q0 36 17.5 78.5t48 81.5 69 63.5 80.5 24.5q34 0 62-6.5t49-34.5q33-15 48.5-41t15.5-46q0-21-11-44t-23.5-47-19.5-47q-2-7-5.5-12t-13.5-5q-11 0-25 10t-27.5 24.5-22 29-8.5 22.5q0 24 13 46t13 35q0 5-1 8.5t-7 3.5q-19 0-40.5-23.5t-36.5-58-15-68.5q0-20 31-31l99-38q79-31 79-100 0-52-26.5-90.5t-69.5-59-91-20.5z"/><path transform="translate(38.472 13.44) scale(.014 -.014)" d="m205-15q-22 0-52.5 13.5t-45.5 47.5q-26 16-39 43.5t-13 64.5q0 24 1 70t3.5 106 7.5 126q-27 12-48.5 35.5t-21.5 38.5q0 12 4.5 19t17.5 8q28 4 58 7 4 32 8 62t9 59q3 16 9 21.5t17 5.5q30 0 58.5-15t47-34 16.5-31q-5-30-8-56 14 0 26 0 15 0 35.5-8.5t39.5-21.5 32-27.5 13-26.5q0-18-9-23t-28-5q-17 0-52-2.5t-74-5.5q-11-85-19.5-169t-11.5-169q38 11 61 30.5t37.5 37 27.5 22.5q6 3 13 3 18 0 30.5-18t12.5-45q0-30-17.5-59t-44.5-52.5-54-37.5-47-14z"/><path transform="translate(47.208 13.44) scale(.014 -.014)" d="m180-13q-15 0-34 10.5t-37.5 35.5-30.5 68-12 108q0 41 2 105.5t7.5 141 13.5 154.5q-24 16-42.5 40.5t-18.5 49.5q0 9 6 12.5t13 3.5q28 0 66.5 3t78.5 6 71 3q57 0 105-18.5t84.5-49 56.5-66 20-69.5q0-31-22.5-76t-67-96-110.5-98l311-363q5-5 9-13t4-15q0-14-18-14-15 0-41 6t-53.5 18.5-48.5 31.5l-289 271q-1-31-2-60.5t-1-54.5q0-17 0.5-32t1.5-28v-1q0-8-7-11t-15-3zm149 625q-20 0-42.5-3t-43.5-6q-9-68-17-147.5t-15-157.5q54 35 90 78.5t53.5 86.5 17.5 78q0 27-10.5 46t-32.5 25z"/><path transform="translate(55.09 13.44) scale(.014 -.014)" d="m162-14q-26 0-54.5 10t-48 29-19.5 46q0 16 2 57t5 95.5 7 113 9 111.5 9 90q1 8 10 10.5t15 2.5q23 0 51-13t48.5-33 20.5-42q0-13-4-51.5t-9.5-91.5-11-111-9.5-112.5-4-94.5q0-5-4-10.5t-13-5.5zm14 664q-33 0-60.5 7.5t-43 27.5-13.5 57q2 19 5.5 41.5t25.5 27.5q12 2 29 3t30 1q28 0 62-9 17-4 17-13 0-23-7-54t-15-85q-16-4-30-4z"/><path transform="translate(58.73 13.44) scale(.014 -.014)" d="m245-15q-33 0-63.5 12.5t-49.5 42.5q-48 23-74 80t-26 133q0 66 18 125.5t49 105.5 71.5 72.5 85.5 26.5q38 0 76-13.5t66-48.5q49-25 75.5-73t26.5-105q0-73-15-138t-46-114.5-79-77.5-115-28zm-20 110q30 0 53 26t39 66.5 24.5 87.5 8.5 89q0 46-10.5 77t-33.5 31q-30 0-53-26t-39-66.5-24.5-87.5-8.5-89q0-46 11-77t33-31z"/><path transform="translate(66.206 13.44) scale(.014 -.014)" d="m205-15q-22 0-52.5 13.5t-45.5 47.5q-26 16-39 43.5t-13 64.5q0 24 1 70t3.5 106 7.5 126q-27 12-48.5 35.5t-21.5 38.5q0 12 4.5 19t17.5 8q28 4 58 7 4 32 8 62t9 59q3 16 9 21.5t17 5.5q30 0 58.5-15t47-34 16.5-31q-5-30-8-56 14 0 26 0 15 0 35.5-8.5t39.5-21.5 32-27.5 13-26.5q0-18-9-23t-28-5q-17 0-52-2.5t-74-5.5q-11-85-19.5-169t-11.5-169q38 11 61 30.5t37.5 37 27.5 22.5q6 3 13 3 18 0 30.5-18t12.5-45q0-30-17.5-59t-44.5-52.5-54-37.5-47-14z"/></svg>

<?xml version="1.0" encoding="utf-8" ?>
<svg baseProfile="tiny" height="100%" version="1.2" width="100%" xmlns="http://www.w3.org/2000/svg" xmlns:ev="http://www.w3.org/2001/xml-events" xmlns:xlink="http://www.w3.org/1999/xlink"><defs /><g><path d="M185 -13Q164 -13 137.5 1.5Q111 16 91.0 48.5Q71 81 71 135Q71 142 71.0 148.5Q71 155 72 162Q78 217 84.5 294.0Q91 371 96.5 457.5Q102 544 106 626Q84 643 67.0 666.0Q50 689 50 705Q50 714 56.0 717.5Q62 721 69 721Q97 721 135.0 723.0Q173 725 210.5 726.5Q248 728 274 728Q331 728 380.5 709.0Q430 690 467.5 660.0Q505 630 526.0 596.0Q547 562 547 532Q547 471 520.5 419.5Q494 368 451.5 326.0Q409 284 360 251Q335 234 314.0 227.0Q293 220 276 220Q259 220 246.5 226.0Q234 232 226 241Q221 186 216.0 127.5Q211 69 207 2Q206 -7 200.0 -10.0Q194 -13 185 -13ZM245 456Q242 416 238.5 378.5Q235 341 231 303Q321 366 359.0 428.0Q397 490 397 538Q397 579 376 604Q361 604 347.0 604.5Q333 605 320 605Q290 605 265.0 604.5Q240 604 218 603Q232 587 239.5 561.0Q247 535 247 495Q247 486 246.5 476.5Q246 467 245 456Z" transform="translate(0.0, 72) scale(0.072, -0.072)" /><path d="M182 -20Q153 -20 123.0 -4.0Q93 12 71.5 39.5Q50 67 47 102Q44 134 42.0 179.0Q40 224 40 276Q40 349 45.5 428.0Q51 507 66 577Q71 598 83 598Q108 598 136.5 585.0Q165 572 185.0 552.5Q205 533 205 513Q205 502 203.0 482.5Q201 463 200 425H202Q208 457 225.5 493.5Q243 530 270.0 556.5Q297 583 331 583Q355 555 369.0 510.0Q383 465 384 420Q332 408 292.5 383.5Q253 359 213 317Q200 265 193.5 206.5Q187 148 184.5 96.5Q182 45 182.0 12.5Q182 -20 182 -20Z" transform="translate(39.672, 72) scale(0.072, -0.072)" /><path d="M245 -15Q212 -15 181.5 -2.5Q151 10 132 40Q84 63 58.0 120.0Q32 177 32 253Q32 319 50.0 378.5Q68 438 99.0 484.0Q130 530 170.5 556.5Q211 583 256 583Q294 583 332.0 569.5Q370 556 398 521Q447 496 473.5 448.0Q500 400 500 343Q500 270 485.0 205.0Q470 140 439.0 90.5Q408 41 360.0 13.0Q312 -15 245 -15ZM225 95Q255 95 278.0 121.0Q301 147 317.0 187.5Q333 228 341.5 275.0Q350 322 350 364Q350 410 339.5 441.0Q329 472 306 472Q276 472 253.0 446.0Q230 420 214.0 379.5Q198 339 189.5 292.0Q181 245 181 203Q181 157 192.0 126.0Q203 95 225 95Z" transform="translate(66.96, 72) scale(0.072, -0.072)" /><path d="M205 -15Q183 -15 152.5 -1.5Q122 12 107 46Q81 62 68.0 89.5Q55 117 55 154Q55 178 56.0 224.0Q57 270 59.5 330.0Q62 390 67 456Q40 468 18.5 491.5Q-3 515 -3 530Q-3 542 1.5 549.0Q6 556 19 557Q47 561 77 564Q81 596 85.0 626.0Q89 656 94 685Q97 701 103.0 706.5Q109 712 120 712Q150 712 178.5 697.0Q207 682 225.5 663.0Q244 644 242 632Q237 602 234 576Q248 576 260 576Q275 576 295.5 567.5Q316 559 335.0 546.0Q354 533 367.0 518.5Q380 504 380 492Q380 474 371.0 469.0Q362 464 343 464Q326 464 291.0 461.5Q256 459 217 456Q206 371 197.5 287.0Q189 203 186 118Q224 129 247.0 148.5Q270 168 284.5 185.5Q299 203 312 208Q318 211 325 211Q343 211 355.5 193.0Q368 175 368 148Q368 118 350.5 89.0Q333 60 306.0 36.5Q279 13 252.0 -1.0Q225 -15 205 -15Z" transform="translate(105.40799999999999, 72) scale(0.072, -0.072)" /><path d="M170 -12Q142 -12 113.5 5.5Q85 23 60.5 52.5Q36 82 21.0 118.0Q6 154 6 190Q6 261 26.5 331.0Q47 401 83.5 458.0Q120 515 170.0 549.0Q220 583 278 583Q304 583 335.0 567.5Q366 552 380 522Q418 504 436.0 468.0Q454 432 450 402Q447 378 429.0 347.5Q411 317 383.0 285.5Q355 254 321.0 227.5Q287 201 251.5 184.5Q216 168 183 168Q171 168 157 176Q160 144 175.5 130.5Q191 117 217 117Q255 117 301.0 144.0Q347 171 399 216Q422 205 434.0 187.5Q446 170 443 144Q439 114 411.5 86.5Q384 59 342.5 36.5Q301 14 255.5 1.0Q210 -12 170 -12ZM319 473Q280 471 248.0 437.0Q216 403 194.0 353.5Q172 304 162 255Q195 262 224.5 289.5Q254 317 276.5 352.5Q299 388 311.0 421.5Q323 455 319 473Z" transform="translate(132.33599999999998, 72) scale(0.072, -0.072)" /><path d="M220 -13Q168 -13 120.0 2.0Q72 17 41.5 48.5Q11 80 11 127Q11 153 21.5 173.0Q32 193 51 193Q67 167 92.5 148.0Q118 129 146.5 119.5Q175 110 198 110Q221 110 236.0 119.5Q251 129 251 149Q251 161 242.0 172.0Q233 183 207 192L122 221Q73 238 55.5 263.0Q38 288 38 332Q38 368 55.5 410.5Q73 453 103.5 492.0Q134 531 172.5 555.5Q211 580 253 580Q287 580 315.0 573.5Q343 567 364 539Q397 524 412.5 498.0Q428 472 428 452Q428 431 417.0 408.0Q406 385 393.5 361.0Q381 337 374 314Q372 307 368.5 302.0Q365 297 355 297Q344 297 330.0 307.0Q316 317 302.5 331.5Q289 346 280.5 360.5Q272 375 272 383Q272 407 285.0 429.0Q298 451 298 464Q298 469 297.0 472.5Q296 476 290 476Q271 476 249.5 452.5Q228 429 213.0 394.5Q198 360 198 326Q198 306 229 295L328 257Q407 226 407 157Q407 105 380.5 66.5Q354 28 311.0 7.5Q268 -13 220 -13Z" transform="translate(166.464, 72) scale(0.072, -0.072)" /><path d="M205 -15Q183 -15 152.5 -1.5Q122 12 107 46Q81 62 68.0 89.5Q55 117 55 154Q55 178 56.0 224.0Q57 270 59.5 330.0Q62 390 67 456Q40 468 18.5 491.5Q-3 515 -3 530Q-3 542 1.5 549.0Q6 556 19 557Q47 561 77 564Q81 596 85.0 626.0Q89 656 94 685Q97 701 103.0 706.5Q109 712 120 712Q150 712 178.5 697.0Q207 682 225.5 663.0Q244 644 242 632Q237 602 234 576Q248 576 260 576Q275 576 295.5 567.5Q316 559 335.0 546.0Q354 533 367.0 518.5Q380 504 380 492Q380 474 371.0 469.0Q362 464 343 464Q326 464 291.0 461.5Q256 459 217 456Q206 371 197.5 287.0Q189 203 186 118Q224 129 247.0 148.5Q270 168 284.5 185.5Q299 203 312 208Q318 211 325 211Q343 211 355.5 193.0Q368 175 368 148Q368 118 350.5 89.0Q333 60 306.0 36.5Q279 13 252.0 -1.0Q225 -15 205 -15Z" transform="translate(197.856, 72) scale(0.072, -0.072)" /><path d="M180 -13Q165 -13 146.0 -2.5Q127 8 108.5 33.0Q90 58 78.0 101.0Q66 144 66 209Q66 250 68.0 314.5Q70 379 75.5 455.5Q81 532 89 610Q65 626 46.5 650.5Q28 675 28 700Q28 709 34.0 712.5Q40 716 47 716Q75 716 113.5 719.0Q152 722 192.0 725.0Q232 728 263 728Q320 728 368.0 709.5Q416 691 452.5 660.5Q489 630 509.0 594.5Q529 559 529 525Q529 494 506.5 449.0Q484 404 439.5 353.0Q395 302 329 255L640 -108Q645 -113 649.0 -121.0Q653 -129 653 -136Q653 -150 635 -150Q620 -150 594.0 -144.0Q568 -138 540.5 -125.5Q513 -113 492 -94L203 177Q202 146 201.0 116.5Q200 87 200 62Q200 45 200.5 30.0Q201 15 202 2V1Q202 -7 195.0 -10.0Q188 -13 180 -13ZM329 612Q309 612 286.5 609.0Q264 606 243 603Q234 535 226.0 455.5Q218 376 211 298Q265 333 301.0 376.5Q337 420 354.5 463.0Q372 506 372 541Q372 568 361.5 587.0Q351 606 329 612Z" transform="translate(242.784, 72) scale(0.072, -0.072)" /><path d="M162 -14Q136 -14 107.5 -4.0Q79 6 59.5 25.0Q40 44 40 71Q40 87 42.0 128.0Q44 169 47.0 223.5Q50 278 54.0 336.5Q58 395 63.0 448.0Q68 501 72 538Q73 546 82.0 548.5Q91 551 97 551Q120 551 148.0 538.0Q176 525 196.5 505.0Q217 485 217 463Q217 450 213.0 411.5Q209 373 203.5 320.0Q198 267 192.5 209.0Q187 151 183.0 96.5Q179 42 179 2Q179 -3 175.0 -8.5Q171 -14 162 -14ZM176 650Q143 650 115.5 657.5Q88 665 72.5 685.0Q57 705 59 742Q61 761 64.5 783.5Q68 806 90 811Q102 813 119.0 814.0Q136 815 149 815Q177 815 211 806Q228 802 228 793Q228 770 221.0 739.0Q214 708 206 654Q190 650 176 650Z" transform="translate(283.32, 72) scale(0.072, -0.072)" /><path d="M245 -15Q212 -15 181.5 -2.5Q151 10 132 40Q84 63 58.0 120.0Q32 177 32 253Q32 319 50.0 378.5Q68 438 99.0 484.0Q130 530 170.5 556.5Q211 583 256 583Q294 583 332.0 569.5Q370 556 398 521Q447 496 473.5 448.0Q500 400 500 343Q500 270 485.0 205.0Q470 140 439.0 90.5Q408 41 360.0 13.0Q312 -15 245 -15ZM225 95Q255 95 278.0 121.0Q301 147 317.0 187.5Q333 228 341.5 275.0Q350 322 350 364Q350 410 339.5 441.0Q329 472 306 472Q276 472 253.0 446.0Q230 420 214.0 379.5Q198 339 189.5 292.0Q181 245 181 203Q181 157 192.0 126.0Q203 95 225 95Z" transform="translate(302.03999999999996, 72) scale(0.072, -0.072)" /><path d="M205 -15Q183 -15 152.5 -1.5Q122 12 107 46Q81 62 68.0 89.5Q55 117 55 154Q55 178 56.0 224.0Q57 270 59.5 330.0Q62 390 67 456Q40 468 18.5 491.5Q-3 515 -3 530Q-3 542 1.5 549.0Q6 556 19 557Q47 561 77 564Q81 596 85.0 626.0Q89 656 94 685Q97 701 103.0 706.5Q109 712 120 712Q150 712 178.5 697.0Q207 682 225.5 663.0Q244 644 242 632Q237 602 234 576Q248 576 260 576Q275 576 295.5 567.5Q316 559 335.0 546.0Q354 533 367.0 518.5Q380 504 380 492Q380 474 371.0 469.0Q362 464 343 464Q326 464 291.0 461.5Q256 459 217 456Q206 371 197.5 287.0Q189 203 186 118Q224 129 247.0 148.5Q270 168 284.5 185.5Q299 203 312 208Q318 211 325 211Q343 211 355.5 193.0Q368 175 368 148Q368 118 350.5 89.0Q333 60 306.0 36.5Q279 13 252.0 -1.0Q225 -15 205 -15Z" transform="translate(340.48799999999994, 72) scale(0.072, -0.072)" /></g></svg>
